X:238
T: Shui gua zhangjiakou
N: C0375
O: China, Hebei, Zhangjiakou
S: IV, 55]
N: Geschichte einer Ueberhschwemmung 1924 einer Stadt am Yangtse.
N: Wenig Verzierungen.
R: Xiaodiao. Xushu lishi shijian]
M: 2/4
L: 1/32
K: F
A4c4d2f2f2d2 | c16
d3dd2c2A2A2G4 | F16
f4f2A2c4c2d2 | A4A2d2c4c2A2
G4G2A2c4c2D2 | F6A2G2D2F2D2 | C16
f4f2A2c4c2d2 | A4A2d2c4c2A2
G4G2A2c4c2D2 | F6A2G2D2F2D2 | C16

